X:333
T:Reel 333
M:4/4
K:Cmaj
L:1/8
E>C (3CCC  (3ECC G,>C|E>C (3CB,C E>G (3GFD | (3DDD D>F  (3DFF DF|F>B, (3DB,B, D>F (3FED |E>C (3CB,C E>C (3CB,C |E>C (3CCC  (3EFG c2|FDDD ADDD| (3EFG DB, CB,C2| (3DEF E>C  (3EFE C>E (3EDE | (3FED _BD F2|F>D (3DED D>D (3FED |D>D (3DDD A2GF| (3EFE C>E  (3EEE  (3EEE |G>E (3EFE c2Bc|BcBc BDDF|G>D (3DDD _B2D2|
